X:1
T:Boy in the Gap
M:4/4
L:1/8
K:D
D2 FAd2 dc|A2 AG EA GE|D2 FA d2 dc|A2 GE ED D2:|!
f2 fg fedf|e2 ef edcB|ABcd edcd|ea a2 eaa2|!
f2 fg fedf|e2 ef edcB|ABcd e2dc|A2 GE ED D2:|!
dff2 dff2|cee2 cee2|dff2 dff2|gece edd2|!
fefd cAA2|BGG2 EFGE|D2 FAd2 dc|A2 AG EA GE|D4Z4|]!
